Extension/src/pages/assets/icons/ad.svg

<svg height="60" viewBox="0 0 60 60" width="60" xmlns="http://www.w3.org/2000/svg"><g fill="none" fill-rule="evenodd"><rect fill="#a1cd90" height="60" rx="4" width="60"/><g transform="translate(15 17)"><g stroke="#fff" stroke-width="2"><path d="m8.4375 15.1785714s4.21875 4.4642857 4.21875 9.8214286c-3.75 0-2.34375 0-5.15625 0-.46875-4.0178571-2.8125-6.6964286-5.15625-9.8214286"/><path d="m10.5 6.32905911v8.90991609l16.3465125 4.5197521c1.3662834.5083878 2.1534875.1568496 2.1534875-.6282968v-16.57682198c0-.84047643-.9869414-1.36244516-2.3897596-1.01717278-.1161953.04024658-.3344399.11521002-.6422422.2199375-.5121856.17426743-1.0889089.36838009-1.7176899.57738827-1.7965716.59718425-3.6511822 1.19439384-5.4643705 1.75211873-.619885.19067257-1.2255991.37379906-1.8147762.54843493-2.6158118.77534327-4.8106784 1.35646339-6.4711616 1.69474394z"/><path d="m10.25 15.0714286v-8.71428574h-9.25163755c.00703506 0 .00163755.00541961.00163755.00797399v8.69833775c0 .0088213-.00084191.007974-.00163755.007974z"/><path d="m15.5 8.5 6.53125-1.80357143" stroke-linecap="round"/></g><ellipse cx="25.3125" cy="5.357143" fill="#fff" rx="1" ry="1"/></g></g></svg>

<?xml version="1.0" encoding="UTF-8"?>
<svg width="60px" height="60px" viewBox="0 0 60 60" version="1.1" xmlns="http://www.w3.org/2000/svg" xmlns:xlink="http://www.w3.org/1999/xlink">
    <!-- Generator: Sketch 51.3 (57544) - http://www.bohemiancoding.com/sketch -->
    <title>Group 2</title>
    <desc>Created with Sketch.</desc>
    <defs></defs>
    <g id="Page-1" stroke="none" stroke-width="1" fill="none" fill-rule="evenodd">
        <g id="Group-2">
            <rect id="Rectangle" fill="#A1CD90" x="0" y="0" width="60" height="60" rx="4"></rect>
            <g id="Group-5" transform="translate(15.000000, 17.000000)">
                <path d="M8.4375,15.1785714 C8.4375,15.1785714 12.65625,19.6428571 12.65625,25 C8.90625,25 10.3125,25 7.5,25 C7.03125,20.9821429 4.6875,18.3035714 2.34375,15.1785714" id="Path-2" stroke="#FFFFFF" stroke-width="2"></path>
                <path d="M10.5,6.32905911 L10.5,15.2389752 L26.8465125,19.7587273 C28.2127959,20.2671151 29,19.9155769 29,19.1304305 L29,2.55360852 C29,1.71313209 28.0130586,1.19116336 26.6102404,1.53643574 C26.4940451,1.57668232 26.2758005,1.65164576 25.9679982,1.75637324 C25.4558126,1.93064067 24.8790893,2.12475333 24.2503083,2.33376151 C22.4537367,2.93094576 20.5991261,3.52815535 18.7859378,4.08588024 C18.1660528,4.27655281 17.5603387,4.4596793 16.9711616,4.63431517 C14.3553498,5.40965844 12.1604832,5.99077856 10.5,6.32905911 Z" id="Combined-Shape" stroke="#FFFFFF" stroke-width="2"></path>
                <path d="M10.25,15.0714286 L10.25,6.35714286 L0.998362452,6.35714286 C1.00539751,6.35714286 1,6.36256247 1,6.36511685 L1,15.0634546 C1,15.0722759 0.999158086,15.0714286 0.998362452,15.0714286 L10.25,15.0714286 Z" id="Rectangle-2" stroke="#FFFFFF" stroke-width="2"></path>
                <path d="M15.5,8.5 L22.03125,6.69642857" id="Line" stroke="#FFFFFF" stroke-width="2" stroke-linecap="round"></path>
                <ellipse id="Oval" fill="#FFFFFF" cx="25.3125" cy="5.35714286" rx="1" ry="1"></ellipse>
            </g>
        </g>
    </g>
</svg>
